Unicodia/Resources/Scripts/0000.svg

<?xml version="1.0" encoding="UTF-8" standalone="no"?>
<!-- Created with Inkscape (http://www.inkscape.org/) -->

<svg
   width="16"
   height="16"
   viewBox="0 0 16 16"
   version="1.1"
   id="svg5"
   inkscape:version="1.2.1 (9c6d41e410, 2022-07-14)"
   sodipodi:docname="0000.svg"
   inkscape:export-filename="..\0000.png"
   inkscape:export-xdpi="96"
   inkscape:export-ydpi="96"
   xmlns:inkscape="http://www.inkscape.org/namespaces/inkscape"
   xmlns:sodipodi="http://sodipodi.sourceforge.net/DTD/sodipodi-0.dtd"
   xmlns="http://www.w3.org/2000/svg"
   xmlns:svg="http://www.w3.org/2000/svg">
  <sodipodi:namedview
     id="namedview7"
     pagecolor="#ffffff"
     bordercolor="#666666"
     borderopacity="1.0"
     inkscape:pageshadow="2"
     inkscape:pageopacity="0"
     inkscape:pagecheckerboard="0"
     inkscape:document-units="px"
     showgrid="true"
     width="16mm"
     units="px"
     inkscape:zoom="33.322407"
     inkscape:cx="6.3920953"
     inkscape:cy="7.35241"
     inkscape:window-width="1680"
     inkscape:window-height="998"
     inkscape:window-x="-8"
     inkscape:window-y="-8"
     inkscape:window-maximized="1"
     inkscape:current-layer="layer1"
     showguides="true"
     inkscape:guide-bbox="true"
     inkscape:snap-bbox="true"
     inkscape:bbox-paths="true"
     inkscape:bbox-nodes="true"
     inkscape:snap-global="true"
     inkscape:showpageshadow="2"
     inkscape:deskcolor="#ffffff">
    <inkscape:grid
       type="xygrid"
       id="grid828"
       originx="0"
       originy="0" />
    <sodipodi:guide
       position="2.1166666,4.4979165"
       orientation="1,0"
       id="guide835"
       inkscape:locked="false" />
    <sodipodi:guide
       position="3.7041665,2.1166666"
       orientation="0,-1"
       id="guide837"
       inkscape:locked="false" />
  </sodipodi:namedview>
  <defs
     id="defs2" />
  <g
     inkscape:label="Layer 1"
     inkscape:groupmode="layer"
     id="layer1">
    <rect
       style="opacity:1;fill:#7fffff;stroke:none;stroke-width:4.4376;stroke-linejoin:bevel;stop-color:#000000;fill-opacity:1"
       id="rect691"
       width="16"
       height="16"
       x="0"
       y="0" />
    <g
       aria-label="L"
       id="text1300"
       style="font-size:5.55761px;line-height:1.25;font-family:Cambria;-inkscape-font-specification:Cambria;text-align:center;letter-spacing:0px;word-spacing:0px;text-anchor:middle;fill:#204a87;stroke-width:0.264583"
       transform="matrix(3.7795254,0,0,3.7795254,0.95458159,8.6463705e-6)">
      <path
         d="m 1.5778085,3.7190917 h 0.7109833 q 0.1166881,0 0.1953847,-0.013568 0.078697,-0.013568 0.1329702,-0.040705 0.056987,-0.02985 0.100406,-0.078697 0.046132,-0.05156 0.086838,-0.1329702 0.040705,-0.08141 0.075983,-0.2035257 0.037991,-0.1248292 0.092265,-0.3717738 h 0.274081 L 3.1924461,3.96875 H 0.75285072 V 3.8357798 Q 0.92109868,3.792361 0.97808589,3.7408012 1.0350731,3.6865276 1.0513552,3.5888353 1.0703509,3.4911429 1.0703509,3.2903308 V 0.9430004 q 0,-0.1872437 -0.013568,-0.27136768 Q 1.0432141,0.58479506 1.01065,0.53866256 0.98079957,0.48981637 0.92923971,0.46267961 0.87767985,0.43282916 0.75285072,0.39755136 V 0.2645812 H 1.8953086 V 0.39755136 Q 1.7759069,0.43011546 1.724347,0.45725226 1.675501,0.48167536 1.642937,0.52509416 1.610373,0.56851296 1.594091,0.65806432 1.577809,0.74761562 1.577809,0.94300039 Z"
         id="path618" />
    </g>
  </g>
</svg>

<svg height="16" viewBox="0 0 16 16" width="16" xmlns="http://www.w3.org/2000/svg"><path d="m0 0h16v16h-16z" fill="#7fffff"/><path d="m1.58 3.72h.71q.12 0 .2-.01.08-.01.13-.04.06-.03.1-.08.05-.05.09-.13.04-.08.08-.2.04-.12.09-.37h.27l-.06 1.08h-2.44v-.13q.17-.05.23-.1.06-.05.07-.15.02-.1.02-.3v-2.35q0-.19-.01-.27-.02-.09-.05-.13-.03-.05-.08-.08-.05-.03-.18-.06v-.14h1.15v.14q-.12.03-.18.06-.04.02-.08.07-.03.04-.05.13-.01.09-.01.28z" fill="#204a87" stroke-width=".26" transform="matrix(3.7795 0 0 3.7795 .95 0)"/></svg>
